X: 28478
T: Muñeira De Rengos
R: jig
M: 6/8
K: Cmajor
CEG|:cdc BAG|E2 C CEG|cdc BAG|F3 DEF|
GAG FEF|E2 D DEF|GAG FED|1 C3 CEG:|2 C3 E2D
|:C2 C CB,C|D3 DEF|GAG GAG|E2 C E2D|C2 C CB,C|
D3 DEF|GAG FED|1 C3 E2D:|2 C3||

